X: 1
T: Kyynel-valssi
T: Teardrop waltz
C: Otto Hotakainen, Halsua, Finland
O: arr. Antti J\"arvel\"a
R: waltz
Z: 2020 John Chambers <jc:trillian.mit.edu>
M: 3/4
L: 1/8
K: Am	clef=alto
(E A)c "^A"|:\
e2 (c2 ~B2) | (A2 F2) D2 | E3 E E2 | E2 A2 (Ac) | Bz2 ^G E2- | E2 B2 (Bd) |\
c3 B A2- | A3 (E Ac) || e2 (c2 ~B2) | (A2 F2) D2 | E2 (A2 c2) | e6 | (d2 e2 c2) | (B2 d2) E2 |\
A3 A A2 |
[1 A3 (D A)c :|2 A3 (c B)A "^B"|: G2 (B2 d2) | f2 (a3 ^g) | e6 | e3 (c B)c |\
d6 | de ((3fgf e2) | c6 | c3 B-{c}BA || f6 | f3 (d B)^G | e6 |\
e3 (c B)c | d3 (c BA) |
^G3 (A B)c | A3 A A2 |1 A3 (c B)A :|2 (A2 c2 e2) \
"^C"|:\
a6 | (a2 b3 a) | e6 | (e2 c2 e2) | g6 | ag uf z2 uB | e6 | e3 f ~e2 || d6 |\
(d2 f2 a2) | c3 c c2 |
(c2 e2 a2) |1 B6 | Bc (~d2 cB) | e6 | (e2 c2 e2) :|2 (B4 e2) |\
(^g4 e2) | a3 a a2 | a2 z(E A)"^D.C."c |] e2 (c2 ~B2) | (A2 F2) D2 |\
(E2 A2) c2 | e6 | (d2 e2 c2) | (B2 e2) ^g2 | a3 a a2 | a6 |]
